!!!COM: des Prez, Josquin
!!!CDT: ~1450-1521/08/27
!!!COA: Agricola, Alexander
!!!COA2: Isaac, Heinrich
!!!OTL@@FRA: Que vous madame / In pace
!!!AGN: Chanson
!!!SCT: NJE 27.33
!!!SCA: New Josquin Edition 27.33
!!!voices: 3
**kern	**text	**kern	**text	**text	**kern	**text	**text
*staff3	*	*staff2	*	*	*staff1	*	*
*Ivox	*	*Ivox	*	*	*Ivox	*	*
*I"Bassus	*	*I"Tenor	*	*	*I"Superius	*	*
*I'B	*	*I'T	*	*	*I'S	*	*
*>[A,B]	*	*>[A,B]	*	*	*>[A,B]	*	*
*>Part1[A]	*	*>Part1[A]	*	*	*>Part1[A]	*	*
*>Part2[B]	*	*>Part2[B]	*	*	*>Part2[B]	*	*
*>A	*	*>A	*	*	*>A	*	*
*clefF4	*	*clefGv2	*	*	*clefG2	*	*
*k[]	*	*k[]	*	*	*k[]	*	*
*M2/1	*	*M2/1	*	*	*M2/1	*	*
*met(C|)	*	*met(C|)	*	*	*met(C|)	*	*
=1-	=1-	=1-	=1-	=1-	=1-	=1-	=1-
!	!	!	!	!	!LO:TX:Z=6:t=Upper voices&colon; virelai (AbbaA)	!	!
0r	.	2.c\	Que	Gran-	0r	.	.
.	.	4d\	.	.	.	.	.
.	.	2e\	.	.	.	.	.
.	.	[2f\	vous,	-de	.	.	.
=2	=2	=2	=2	=2	=2	=2	=2
0r	.	2f\]	.	.	1r	.	.
.	.	4e\	.	me	.	.	.
.	.	4d\	.	.	.	.	.
.	.	[1e	.	soit,	2.g/	Que	Gran-
.	.	.	.	.	4a/	.	.
=3	=3	=3	=3	=3	=3	=3	=3
0E	In	1e]	.	.	2b\	.	.
.	.	.	.	.	1cc	vous	-de
.	.	1e	ma-	gran-	.	.	.
.	.	.	.	.	4b\	.	.
.	.	.	.	.	4a/	.	.
=4	=4	=4	=4	=4	=4	=4	=4
[0G	pa-	1e	-da-	-de	1b	.	.
.	.	1d	.	.	1b	ma-	me
=5	=5	=5	=5	=5	=5	=5	=5
0G]	.	0g	.	.	2.b\	-da-	soit
.	.	.	.	.	4cc\	.	.
.	.	.	.	.	2dd\	.	.
.	.	.	.	.	[2ee\	.	.
=6	=6	=6	=6	=6	=6	=6	=6
0A	.	1e	.	.	4ee\]	.	.
.	.	.	.	.	4dd\	.	.
.	.	.	.	.	1cc	.	.
.	.	1f	.	me	.	.	.
.	.	.	.	.	4b\	.	.
.	.	.	.	.	4a/	.	.
=7	=7	=7	=7	=7	=7	=7	=7
0G	-ce	1.g	.	soit	0b	-me,	.
.	.	2f\	.	.	.	.	.
=8	=8	=8	=8	=8	=8	=8	=8
0r	.	2e\	.	.	1r	.	.
.	.	2d\	.	.	.	.	.
.	.	1g	-me,	.	1b	je	dic-
=9	=9	=9	=9	=9	=9	=9	=9
0r	.	2r	.	.	2a/	le	-te
.	.	1c	je	dic-	1cc	ju-	l'in-
.	.	2d\	le	-te	4b\	.	.
.	.	.	.	.	4a/	.	.
=10	=10	=10	=10	=10	=10	=10	=10
0r	.	2e\	ju-	l'in-	2g/	.	.
.	.	2f\	.	-ju-	2a/	.	-ju-
.	.	2e\	.	.	2g/	.	.
.	.	[2f\	.	.	[2a/	.	.
=11	=11	=11	=11	=11	=11	=11	=11
0r	.	4f\]	.	.	4a/]	.	.
.	.	4e\	.	.	4g/	.	.
.	.	4d\	.	.	4f/	.	.
.	.	4c\	.	.	4e/	.	.
.	.	2.B\	.	.	1d	-re,	-re
.	.	4c\	.	.	.	.	.
=12	=12	=12	=12	=12	=12	=12	=12
[0B	in	1d	.	.	1r	.	.
.	.	1G	-re	-re	1dd	N'est	S'aul-
=13	=13	=13	=13	=13	=13	=13	=13
0B]	.	1r	.	.	1dd	ne	-tre a
.	.	[1g	N'est	S'aul-	1dd	se-	ma
=14	=14	=14	=14	=14	=14	=14	=14
[0c	.	1g]	.	.	0ee	-ra	fran-
.	.	1g	ne	-tre a	.	.	.
=15	=15	=15	=15	=15	=15	=15	=15
1c]	.	1e	se-	ma	1ee	de	-chi-
[1d	.	1d	-ra	fran-	[1ff	moy	-se as-
=16	=16	=16	=16	=16	=16	=16	=16
0d]	.	0f	de	-chi-	2ff\]	.	.
.	.	.	.	.	4ee\	.	.
.	.	.	.	.	4dd\	.	.
.	.	.	.	.	1ff	.	.
=17	=17	=17	=17	=17	=17	=17	=17
1c	id	1g	moy	-se a	1ee	ser-	-ser-
1B	.	1G	ser-	ser-	[1dd	-vi-	-vi-
=18	=18	=18	=18	=18	=18	=18	=18
0A	ip-	0c	-vi-	-vi-	2dd\]	.	.
.	.	.	.	.	2cc\	.	.
.	.	.	.	.	[1cc	.	.
=19	=19	=19	=19	=19	=19	=19	=19
0G	-sum	0d	.	.	2cc\]	.	.
.	.	.	.	.	4b\	.	.
.	.	.	.	.	4a/	.	.
.	.	.	.	.	1b	.	.
=20	=20	=20	=20	=20	=20	=20	=20
0r	.	0c	-e;	-e;	1.cc	.	.
.	.	.	.	.	4b\	.	.
.	.	.	.	.	4a/	.	.
=21	=21	=21	=21	=21	=21	=21	=21
0r	.	1r	.	.	2g/	.	.
.	.	.	.	.	2a/	.	.
.	.	1c	Et	Et	1e	-e;	-e;
=22	=22	=22	=22	=22	=22	=22	=22
0r	.	1c	tant	mort	2r	.	.
.	.	.	.	.	2cc\	Et	Et
.	.	1d	qu'au-	vueil	2b\	tant	mort
.	.	.	.	.	[2a/	qu'aul-	vueil
=23	=23	=23	=23	=23	=23	=23	=23
0r	.	0f	-ra	a-	4a/]	.	.
.	.	.	.	.	4g/	.	.
.	.	.	.	.	4f/	.	.
.	.	.	.	.	4e/	.	.
.	.	.	.	.	1d	.	a-
=24	=24	=24	=24	=24	=24	=24	=24
[0c	dor-	[0e	vos-	-voir	1c	-ra	-voir
.	.	.	.	.	1cc	vos-	des-
=25	=25	=25	=25	=25	=25	=25	=25
1c]	.	1e]	.	.	1cc	-tre	-ser-
1G	-mi-	1d	-tre	des-	[1b	serf	-vi-
=26	=26	=26	=26	=26	=26	=26	=26
0A	-am,	1c	serf	-serf-	2b\]	.	.
.	.	.	.	.	2a/	.	.
.	.	1A	.	.	[1a	vi-	.
=27	=27	=27	=27	=27	=27	=27	=27
0E	.	0B	vi-	-vi-	1a]	.	.
.	.	.	.	.	1g#i	.	.
=28	=28	=28	=28	=28	=28	=28	=28
1r	.	1.A	-e,	-e,	0a	-e,	-e,
[1F	dor-	.	.	.	.	.	.
.	.	2B\	Gar-	Se	.	.	.
=29	=29	=29	=29	=29	=29	=29	=29
2F\]	.	2c\	-de	nul-	1r	.	.
4E\	.	1d	n'a-	-le	.	.	.
4D\	.	.	.	.	.	.	.
1E	-mi-	.	.	.	1g	Gar-	Se
.	.	2c#i\	.	da-	.	.	.
=30	=30	=30	=30	=30	=30	=30	=30
0D	-am,	1d	-vez,	-me,	2f/	-de	nul-
.	.	.	.	.	1a	n'a-	-le
.	.	1r	.	.	.	.	.
.	.	.	.	.	4g/	.	da-
.	.	.	.	.	4f/	.	.
=31	=31	=31	=31	=31	=31	=31	=31
1r	.	1.c	gar-	se	0e	-vez,	-me,
[1A	dor-	.	.	.	.	.	.
.	.	2d\	-de	nul-	.	.	.
=32	=32	=32	=32	=32	=32	=32	=32
2A\]	.	2e\	n'a-	-le	1r	.	.
4G\	.	1f	.	da-	.	.	.
4F\	.	.	.	.	.	.	.
1G	-mi-	.	.	.	1b	gar-	se
.	.	2e\	.	.	.	.	.
=33	=33	=33	=33	=33	=33	=33	=33
0F	-am,	1f	-vez,	-me,	2a/	-de	nul-
.	.	.	.	.	1cc	n'a-	-le
.	.	1r	.	.	.	.	.
.	.	.	.	.	4b\	.	da-
.	.	.	.	.	4a/	.	.
=34	=34	=34	=34	=34	=34	=34	=34
1r	.	1.e	gar-	se	0g	-vez,	me,
[1c	dor-	.	.	.	.	.	.
.	.	2f\	-de	nul-	.	.	.
=35	=35	=35	=35	=35	=35	=35	=35
2c\]	.	2g\	n'a-	-le	1r	.	.
4B\	.	1a	.	da-	.	.	.
4A\	.	.	.	.	.	.	.
1B	-mi-	.	.	.	1dd	gar-	se
.	.	2g#i\	.	.	.	.	.
=36	=36	=36	=36	=36	=36	=36	=36
0A	-am	2.a\	.	.	2cc\	-de	nul-
.	.	.	.	.	1ee	n'a-	.
.	.	4g\	.	.	.	.	.
.	.	2.e\	.	.	.	.	.
.	.	.	.	.	4dd\	.	.
.	.	4f\	.	.	4cc\	.	.
=37	=37	=37	=37	=37	=37	=37	=37
1r	.	2.g\	.	.	2.b\	.	.
.	.	4f\	.	.	4cc\	.	.
1G	et	2d\	.	.	2dd\	.	-le
.	.	[2e\	-vez,	.	[2g/	-vez	da-
=38	=38	=38	=38	=38	=38	=38	=38
1G	re-	2e\]	.	.	2g/]	.	.
.	.	4d\	.	.	4f/	.	.
.	.	4c\	.	.	4e/	.	.
[1G	-qui-	2.B\	.	-me,	1d	.	-me
.	.	4A/	.	.	.	.	.
=39	=39	=39	=39	=39	=39	=39	=39
2G\]	.	2B\	.	.	2r	.	.
4F\	.	2c\	qu'il	me	2g/	qu'il	me
4E\	.	.	.	.	.	.	.
1F	-es-	1A	se	.	2a/	se	.
.	.	.	.	.	2cc\	par-	con-
=40	=40	=40	=40	=40	=40	=40	=40
[0G	-cam.	2G/	par-	con-	2.b\	-ju-	-ju-
.	.	2.g\	-ju-	-ju-	.	.	.
.	.	.	.	.	4cc\	.	.
.	.	.	.	.	2dd\	.	.
.	.	4f\	.	.	.	.	.
.	.	4e\	.	.	[2ee\	.	.
.	.	4d\	.	.	.	.	.
=41	=41	=41	=41	=41	=41	=41	=41
0G]	.	2g\	.	.	4ee\]	.	.
.	.	.	.	.	4dd\	.	.
.	.	2c\	.	.	1cc	.	.
.	.	1d	.	.	.	.	.
.	.	.	.	.	2b\	.	.
=42	=42	=42	=42	=42	=42	=42	=42
0Cl	.	0cl	-re.	-re,	0ccl	-re.	re,
!!LO:LB:g=z
=43||	=43||	=43||	=43||	=43||	=43||	=43||	=43||
*>B	*	*>B	*	*	*>B	*	*
!!section: Une fois a vous / Si dedero
!!!OMD: Une fois a vous / Si dedero
[0G	Si	0g	U-	Onc-	0b	U-	Onc-
=44	=44	=44	=44	=44	=44	=44	=44
0G]	.	1g	-ne	-quez	1b	-ne	-quez
.	.	1g	fois	riens	1b	fois	riens
=45	=45	=45	=45	=45	=45	=45	=45
0r	.	1e	a	mieulx,	1.cc	a	mieulx,
.	.	1f	.	.	.	.	.
.	.	.	.	.	4b\	.	.
.	.	.	.	.	4a/	.	.
=46	=46	=46	=46	=46	=46	=46	=46
0r	.	2.g\	vous,	.	2.b\	vous,	.
.	.	4f\	.	.	4cc\	.	.
.	.	2d\	.	.	2dd\	.	.
.	.	[2e\	.	riens	[2g/	.	riens
=47	=47	=47	=47	=47	=47	=47	=47
1r	.	2e\]	.	.	2g/]	.	.
.	.	4d\	.	.	4f/	.	.
.	.	4c\	.	.	4e/	.	.
[1G	de-	2B\	.	.	2d/	.	.
.	.	2c\	a	.	[2e/	.	.
=48	=48	=48	=48	=48	=48	=48	=48
0G]	.	2B\	.	.	2e/]	.	.
.	.	1c	.	.	4d/	.	.
.	.	.	.	.	4c/	.	.
.	.	.	.	.	1d	.	.
.	.	2B\	.	.	.	.	.
=49	=49	=49	=49	=49	=49	=49	=49
1.A	-de-	0c	vous	mieulx	2.c/	a	mieulx
.	.	.	.	.	4d/	.	.
.	.	.	.	.	2e/	.	.
4G\	.	.	.	.	2f/	.	.
4F\	.	.	.	.	.	.	.
=50	=50	=50	=50	=50	=50	=50	=50
2.E\	.	1r	.	.	1g	vous	.
4D\	.	.	.	.	.	.	.
[1F	.	1c	me	je	2r	.	.
.	.	.	.	.	[2a/	me	je
=51	=51	=51	=51	=51	=51	=51	=51
2F\]	.	1A	don-	n'or-	2a/]	.	.
2E\	.	.	.	.	2g/	.	n'or-
1D	.	1B	.	-don-	2f/	don-	-don-
.	.	.	.	.	4e/	.	.
.	.	.	.	.	4d/	.	.
=52	=52	=52	=52	=52	=52	=52	=52
[0C	-ro	[0c	-nay,	-nay,	0e	-nay,	-nay,
=53	=53	=53	=53	=53	=53	=53	=53
0C]	.	0c]	.	.	1r	.	.
.	.	.	.	.	1g	Et	Se
=54	=54	=54	=54	=54	=54	=54	=54
0r	.	1r	.	.	1a	de	vos-
.	.	1d	Et	Se	1b	re-	-tre
=55	=55	=55	=55	=55	=55	=55	=55
0r	.	1e	de	vos-	1.cc	-cef	gra-
.	.	1f	re-	-tre	.	.	.
.	.	.	.	.	4b\	.	.
.	.	.	.	.	4a/	.	.
=56	=56	=56	=56	=56	=56	=56	=56
0G	somp-	1.g	-cef	gra-	1b	.	.
.	.	.	.	.	1b	cer-	-ce a
.	.	2f\	cer-	-ce a	.	.	.
=57	=57	=57	=57	=57	=57	=57	=57
1A	-num	1e	-tes	moy	1cc	-tes	moy
1B	o-	1d	.	.	1dd	my	s'a-
=58	=58	=58	=58	=58	=58	=58	=58
1.c	.	0e	.	.	2g/	don-	-don-
.	.	.	.	.	4a/	.	.
.	.	.	.	.	4b\	.	.
.	.	.	.	.	[1cc	.	.
2B\	.	.	.	.	.	.	.
=59	=59	=59	=59	=59	=59	=59	=59
1A	-cu-	2r	.	.	2cc\]	.	.
.	.	2c\	my	s'a-	4b\	.	.
.	.	.	.	.	4a/	.	.
1G	.	2d\	don-	-don-	2b\	.	.
.	.	[2e\	.	.	[2g/	.	.
=60	=60	=60	=60	=60	=60	=60	=60
1E	-lis	4e\]	.	.	4g/]	.	.
.	.	4d\	.	.	4f/	.	.
.	.	4c\	.	.	2g/	.	.
.	.	4B\	.	.	.	.	.
1F	.	1A	.	.	4a/	.	.
.	.	.	.	.	4g/	.	.
.	.	.	.	.	4f/	.	.
.	.	.	.	.	4e/	.	.
=61	=61	=61	=61	=61	=61	=61	=61
0G	me-	[0Bl	-ne.	-ne.	[0dl	-ne.	ne.
=62	=62	=62	=62	=62	=62	=62	=62
0Gl	-is.	0B]	.	.	0d]	.	.
=63||	=63||	=63||	=63||	=63||	=63||	=63||	=63||
*-	*-	*-	*-	*-	*-	*-	*-
!!!RDF**kern: l=long note in original notation
!!!RDF**kern: i=editorial accidental
!!!ENC: Jesse Rodin; Victoria Chang 2011/07/26/
!!!END: 2011/07/26/
!!!EED: Jesse Rodin
!!!EEV: 2011/08/09/
!!attribution-level@Jos: 1 (secure, core group [checkmark])
!!!ONB: Translated from MusicXML and edited on 2011/08/09/ by Craig Sapp
!!muse2ps:  C^@{COM}\n@{SCT}^i2I150v90,90,120c105z18l2500t130
